verbatimtex
%&latex
\documentclass{article}
\usepackage{amssymb}
\begin{document}
\footnotesize
etex



input mydefs;

vardef f(expr x)= x/(1+abs(x)) enddef;

u:=0.7cm;
v := 0.3*u;

beginfig(1);

path c;




endfig;
end