verbatimtex
%&latex
\documentclass{article}
\begin{document}
\footnotesize
etex

u := 1cm;

beginfig(1);

fill unitsquare xscaled 8u yscaled 6u withcolor (0.5,0.5,0.5);
draw unitsquare xscaled 8u yscaled 6u;

label( btex 37\_schwingung.eps etex, (4u,3u) );




endfig;
end