input mydefs;

beginfig(1);

  path c;
  c := (416,120) .. 
    controls (388,56) and (73,397) .. (275,343) .. 
    controls (477,289) and (88,18) .. (85,168) .. 
    controls (82,318) and (444,184) .. (416,120);

  draw c thick;
  
  
endfig;
end